X:1
T:Victory
T:Victory
T:Joseph Lincoln Hall
T:Irvin H. Mack, 1902
T:Public Domain Courtesy of the Cyber Hymnal™
T:Public Domain Courtesy of the Cyber Hymnal™
C:Joseph Lincoln Hall
Z:Public Domain
Z:Courtesy of the Cyber Hymnal™
%%score ( 1 2 ) ( 3 4 )
L:1/8
Q:1/4=100
M:4/4
K:F
V:1 treble 
V:2 treble 
V:3 bass 
V:4 bass 
V:1
 [A,F]2 [A,D]2 [B,E]2 [B,C]2 | [CF]>[CE] [CF]>[FA] [Fc]4 | [EB]2 [EG]2 [FA]2 F2 | %3
w: 1.~Raise the stand- ard|of the Lord on high,|Bring the ban- ner|
w: 2.~Joy- ful be our|hearts, our lives be bright,|Press- ing on- ward|
w: 3.~Take the mes- sage|un- to all the earth,|Let the na- tions|
 [DG]>[DF] [DE]>[DF] [EG]4 | [A,F]2 [A,D]2 [B,E]2 [B,C]2 | [CF]>[CE] [CF]>[FA] [Fc]4 | %6
w: of sal- va- tion nigh;|For- ward, Chris- tians,|shout- ing vic- to- ry,|
w: in the Sav- ior’s might;|Cour- age, Chris- tians,|heed the Cap- tain’s call,|
w: know the Gos- pel worth;|Has- ten with the|news that God is love;|
 [Fd]>[Fe] [Ff]2 [Fc]>[EB] [FA]2 | [DG]>D [CE]>C [CF]4 |:"^Refrain" [FAc]4 [EBc]4 | %9
w: Vic- to- ry! Vic- to- ry!|This the song shall be.|On! On!|
w: Vic- to- ry! Vic- to- ry!|Peace and joy for all.|On! On!|
w: Vic- to- ry! Vic- to- ry!|Com- eth from ab- ove.||
 [FAc]>[FAd] [FAc]>[FB] [FA]2 F2 | [^CEA]4 [DFA]4 | [^CGA]>[CGB] [CEA]>[CEG] [DF]2 D2 |1 %12
w: With His ban- ner o’er us,|On! On!|Je- sus goes be- fore us.|
w: Where- so- e’er He sends us,|On! On!|God a- bove de- fends us,|
w: |||
 [=B,DFG]4 [CEG]4 | [=B,DG]>[B,DA] [B,DG]>[B,DF] [CE]2 [Ec]2 | [CFA]4 [FG=Bd]4 | [EGc]6 z2 :|2 %16
w: On! On!|Raise the hap- py cho- rus,|Vic- to-|ry!|
w: ~ ~|~ ~ ~ ~ ~ ~|~ ~|~|
w: ||||
 [DFBd]4 [F^G=Bd]4 || [FAc]>[FA=B] [FAc]>[FAd] [FAc]2 [FAcf]2 | [CFA]2 [CFAc]2 [CEG]2 [CEGc]2 | %19
w: |||
w: On! On!|Vic- to- ry at- tends us|Ev- ery- where we|
w: |||
 [A,CF]6 z2 |] %20
w: |
w: go.|
w: |
V:2
 x8 | x8 | x6 F2 | x8 | x8 | x8 | x8 | x3/2 D/ x C/ x9/2 |: x8 | x6 F2 | x8 | x6 D2 |1 x8 | x8 | %14
 x8 | x8 :|2 x8 || x8 | x8 | x8 |] %20
V:3
 [F,,F,]2 [D,,D,]2 [E,,E,]2 [C,,C,]2 | [F,A,]>[F,G,] [F,A,]>[F,C] [F,A,]4 | %2
 [C,G,]2 [C,C]2 [F,C]2 [A,C]2 | [G,=B,]>[G,B,] [G,B,]>[G,B,] (C2 _B,2) | %4
 [F,,F,]2 [D,,D,]2 [E,,E,]2 [C,,C,]2 | [F,A,]>[F,G,] [F,A,]>[F,C] [F,A,]4 | %6
 B,>[B,C] [B,D]2 [A,C]>[G,C] [F,C]2 | [B,,B,]>[B,,B,] [B,,B,]>[B,,B,] [F,A,]4 |: %8
 ([C,C]2 [A,,A,]2) ([B,,B,]2 [G,,G,]2) | [F,,F,]2 [A,,A,]2 [C,C]2 [A,,A,]2 | %10
 [G,,G,]2 [E,,E,]2 [F,,F,]2 [D,,D,]2 | [A,,,A,,]2 [^C,,^C,]2 [D,,D,]2 [F,,F,]2 |1 %12
 ([G,,G,]2 [D,,D,]2) ([E,,E,]2 [C,,C,]2) | [G,,G,]2 [D,,D,]2 [E,,E,]2 [C,,C,]2 | %14
 ([F,,F,]2 [D,,D,]2) ([G,,G,]2 [G,,,G,,]2) | ([C,,C,]2 [E,,E,]2 [G,,G,]2 [B,,B,]2) :|2 %16
 ([B,,B,]2 [A,,A,]2) ([^G,,^G,]2 [F,,F,]2) || [C,,C,]2 [F,,F,]2 [A,,A,]2 [C,C]2 | %18
 [F,,F,]2 [A,,A,]2 [C,,C,]2 [E,,E,]2 | [F,,F,]6 z2 |] %20
V:4
 x8 | x8 | x8 | x4 C,4 | x8 | x8 | B,3/2 x13/2 | x8 |: x8 | x8 | x8 | x8 |1 x8 | x8 | x8 | x8 :|2 %16
 x8 || x8 | x8 | x8 |] %20

